X: 2054
Q: "Reel."
M: C
L: 1/8
K: Am
c |\
cBcG EGGc | A/A/A (e^g) aAA :|\
ug |\
(e/f/g) (cg) ecgc | BGdG Bcdf |
ecgc egca | gede cAAg |\
agea gced | cAGc EcGc |\


